X: 2798
T: Bantry Bay
R: hornpipe
M: 4/4
K: Gmajor
GA|BG AG EG (3DEF|G2 (3AGF GB AG|EG AB cB AG|(3ABA GB A2 AB|
~c3A ~B3G|AB AG EG DG|~B3G AG EG|(3FED B,D G2 GA|
BG AG EG (3DEF|G2 (3AGF GB AG|EG AB cB AG|(3ABA GB A2 AB|
ce cA Bd BG|AB AG EG DG|~B3G AG EG|(3FED B,D G2 AB||
|:d2 dB dB GB|(3efe ^df e2 ef|{a}gf ed BA Bd|(3gag fa g2 ef|
ga (3bag ef ed|{Bc}BA GB AG EG|~B3G AG EG|(3FED B,D G4:|

